src/git-branch.svg

<svg width="24" height="24" viewBox="0 0 24 24" xmlns="http://www.w3.org/2000/svg">
<path fill-rule="evenodd" clip-rule="evenodd" d="M16.2857 9.69858C15.4371 9.69858 14.7429 8.99144 14.7429 8.15572C14.7429 7.32001 15.45 6.61287 16.2857 6.61287C17.1214 6.61287 17.8286 7.32001 17.8286 8.15572C17.8286 8.99144 17.1214 9.69858 16.2857 9.69858M8.57143 19.9843C7.72286 19.9843 7.02857 19.2772 7.02857 18.4414C7.02857 17.6057 7.73571 16.8986 8.57143 16.8986C9.40714 16.8986 10.1143 17.6057 10.1143 18.4414C10.1143 19.2772 9.40714 19.9843 8.57143 19.9843M8.57143 4.02858C9.42 4.02858 10.1143 4.73572 10.1143 5.57144C10.1143 6.40715 9.40714 7.1143 8.57143 7.1143C7.73571 7.1143 7.02857 6.40715 7.02857 5.57144C7.02857 4.73572 7.73571 4.02858 8.57143 4.02858M18.8571 8.14287C18.8571 6.71572 17.7129 5.57144 16.2857 5.57144C14.8701 5.56758 13.7207 6.71187 13.7169 8.12744C13.7143 9.04544 14.2041 9.8953 15 10.3543V10.74C14.9743 11.4086 14.7043 12 14.19 12.5143C13.6757 13.0286 13.0843 13.2986 12.4157 13.3243C11.3486 13.35 10.5129 13.53 9.84429 13.9042V7.78287C11.0709 7.07572 11.4913 5.50972 10.7854 4.28315C10.3277 3.4873 9.47786 2.99744 8.55857 3.00001C7.13143 3.00001 6 4.1443 6 5.57144C6.00514 6.4843 6.495 7.32644 7.28571 7.78287V16.2172C6.52714 16.6672 6 17.49 6 18.4286C6 19.8557 7.14429 21 8.57143 21C9.99857 21 11.1429 19.8557 11.1429 18.4286C11.1429 17.7472 10.8857 17.1429 10.4614 16.68C10.5771 16.6029 11.0786 16.1542 11.22 16.0757C11.5414 15.9343 11.94 15.8572 12.4286 15.8572C13.7786 15.7929 14.9357 15.2786 15.9643 14.25C16.9929 13.2214 17.5071 11.7043 17.5714 10.3672H17.5457C18.33 9.9043 18.8571 9.08144 18.8571 8.14287" fill="currentColor"/>
</svg>

<svg width="24" height="24" viewBox="0 0 24 24" xmlns="http://www.w3.org/2000/svg" xmlns:xlink="http://www.w3.org/1999/xlink">
  <path d="M16.286 9.699a1.556 1.556 0 0 1-1.543-1.543c0-.836.707-1.543 1.543-1.543.835 0 1.543.707 1.543 1.543 0 .835-.708 1.543-1.543 1.543M8.57 19.984a1.556 1.556 0 0 1-1.542-1.543c0-.835.707-1.542 1.542-1.542.836 0 1.543.707 1.543 1.542 0 .836-.707 1.543-1.543 1.543m0-15.955c.849 0 1.543.707 1.543 1.542 0 .836-.707 1.543-1.543 1.543a1.564 1.564 0 0 1-1.54-1.543c0-.835.707-1.542 1.542-1.542m10.286 4.114a2.563 2.563 0 0 0-2.571-2.572A2.562 2.562 0 0 0 15 10.354v.386c-.026.669-.296 1.26-.81 1.774-.514.515-1.106.785-1.774.81-1.067.026-1.903.206-2.572.58V7.783A2.563 2.563 0 0 0 8.56 3 2.552 2.552 0 0 0 6 5.571a2.571 2.571 0 0 0 1.286 2.212v8.434C6.527 16.667 6 17.49 6 18.43A2.563 2.563 0 0 0 8.571 21a2.563 2.563 0 0 0 2.572-2.571c0-.682-.257-1.286-.682-1.749.116-.077.618-.526.759-.604.321-.142.72-.219 1.209-.219 1.35-.064 2.507-.578 3.535-1.607 1.029-1.029 1.543-2.546 1.607-3.883h-.025c.784-.463 1.311-1.286 1.311-2.224" fill="currentColor"/>
</svg>
